X:592
T: Jianchi yiuji wupaji
N: C2014
O: China,ÿFujian Shanghang
S: II, 593, 1)]
R: Shange, Tipa shange]
M: 2/4
L: 1/16
K: E
efe2c2cB | f6ec | efecc2B2 |
c2f2efe2 | c2cBc2c2 |
B2B4cf | c2f2cee2 | c2B4ce |
c2f2cecB | c6ec |
B2ceceec | B8

